assets/images/process_step1.svg

<svg width="349" height="351" fill="none" xmlns="http://www.w3.org/2000/svg"><circle cx="174.5" cy="174.5" r="174.5" fill="#000"/><path d="M228.475 130.525a3.5 3.5 0 00-4.95 0l-22.274 22.274a3.5 3.5 0 104.95 4.95L226 137.95l19.799 19.799a3.5 3.5 0 104.95-4.95l-22.274-22.274zM132.5 347a3.5 3.5 0 107 0h-7zm3.5-124.5V219h-3.5v3.5h3.5zm90 0v3.5h3.5v-3.5H226zm-93.5 0V347h7V222.5h-7zm90-89.5v89.5h7V133h-7zm3.5 86h-90v7h90v-7z" fill="#fff"/><circle cx="213" cy="283" r="20.5" fill="#fff" stroke="#fff"/><circle cx="91.5" cy="139.5" r="59" fill="#fff" stroke="#fff"/><circle cx="226" cy="70" r="34" fill="#FED141"/><path d="M210 66.963L222.5 80 245 58" stroke="#000" stroke-width="8" stroke-linecap="round"/></svg>

<svg width="349" height="351" viewBox="0 0 349 351" fill="none" xmlns="http://www.w3.org/2000/svg">
<circle cx="174.5" cy="174.5" r="174.5" fill="black"/>
<path d="M228.475 130.525C227.108 129.158 224.892 129.158 223.525 130.525L201.251 152.799C199.884 154.166 199.884 156.382 201.251 157.749C202.618 159.116 204.834 159.116 206.201 157.749L226 137.95L245.799 157.749C247.166 159.116 249.382 159.116 250.749 157.749C252.116 156.382 252.116 154.166 250.749 152.799L228.475 130.525ZM132.5 347C132.5 348.933 134.067 350.5 136 350.5C137.933 350.5 139.5 348.933 139.5 347H132.5ZM136 222.5V219H132.5V222.5H136ZM226 222.5V226H229.5V222.5H226ZM132.5 222.5V347H139.5V222.5H132.5ZM222.5 133V222.5H229.5V133H222.5ZM226 219H136V226H226V219Z" fill="white"/>
<circle cx="213" cy="283" r="20.5" fill="white" stroke="white"/>
<circle cx="91.5" cy="139.5" r="59" fill="white" stroke="white"/>
<circle cx="226" cy="70" r="34" fill="#FED141"/>
<path d="M210 66.963L222.5 80L245 58" stroke="black" stroke-width="8" stroke-linecap="round"/>
</svg>
